X: 1
T: Karl Fant's
M: 3/4
L: 1/8
R: waltz
K: Gmin
D2 |: G2 G^F GA | B2 BA Bc | d2 d^c d=e | f2 f=e gf |
d2 dc Ac | B2 BA cA | Bc BA G^F | [1 G4 D2 :| [2 G4 A2 ||
|: B2 BA B2 | d2 c2 B2 | A3 A GA | c2 B2 A2 |
G2 G^F GA | B2 A2 G2 | FG AF AF | [1 G4 A2 :| [2 G4 D2 ||
|: d z3 cd | B4 G2 | A2 Ac BA | B4 GB |
d2 d^c d=e | f4 df | a2 ag =e^c | d4 d2 |
g3 ^f ga | ^f4 d2 | =e2 ec eg | f4 d2 |
g2 gd cd | B2 A2 G2 | A2 A^F A^F | [1 G4 D2 :| [2 G4 G2 ||
